X: 10461
T: ST. PATRICK'S DAY IN THE MORNING
C:
%R: jig
B: Elias Howe "The Musician's Companion" Part 1 1842 p.46 #1
S: http://imslp.org/wiki/The_Musician's_Companion_(Howe,_Elias)
Z: 2015 John Chambers <jc:trillian.mit.edu>
M: 6/8
L: 1/8
K: G
% - - - - - - - - - - - - - - - - - - - - - - - - -
D |\
GAG GAB | ded dBG |\
BAB AFD | EFE E2D |\
GAG GAB | ded dBG |\
BAB AFD | E2F "^Fine."G2 ::\
e |\
def g2e | fed edB |
def g2e | afd e2f |\
def g2e | f2d efg |\
GFG GAB | ded dcB |\
BAB AFD | EFE E2D |\
GAG GAB | ded dBG |\
BAB AFD | E2F G2 :|
% - - - - - - - - - - - - - - - - - - - - - - - - -


